src/assets/cards/5C.svg

<svg clip-rule="evenodd" fill-rule="evenodd" stroke-linejoin="round" stroke-miterlimit="2" viewBox="0 0 934 1300" xmlns="http://www.w3.org/2000/svg"><g fill-rule="nonzero"><path d="m36.033 156.804 13.41-.113c2.559 8.091 8.217 16.358 15.906 18.628 21.714 5.106 35.701-7.024 40.305-21.024 5.582-16.972-.125-40.806-15.078-49.274-12.394-7.024-30.809-1.104-39.251 13.899l-9.408-5.745 5.042-55.922h61.379v13.221h-49.737l-.778 23.295c10.688-7.514 27.158-7.439 37.858-2.17 20.259 9.659 29.68 31.637 25.729 57.54-5.457 25.766-17.487 40.368-44.658 42.463-30.181.263-40.844-20.498-40.719-34.798z"/><path d="m897.986 1143.21-13.422.11c-2.546-8.1-8.216-16.36-15.893-18.64-21.715-5.1-35.701 7.02-40.305 21.02-5.582 16.98.125 40.82 15.066 49.29 12.406 7.03 30.821 1.11 39.263-13.91l9.408 5.75-5.055 55.92h-61.367v-13.21h49.738l.778-23.3c-10.688 7.51-27.158 7.43-37.858 2.16-20.272-9.66-29.68-31.62-25.741-57.54 5.469-25.76 17.486-40.35 44.657-42.45 30.194-.26 40.857 20.49 40.731 34.79z"/><path d="m436.031 769.044c12-24.063 20.75-48.754 22.292-75.154 1.417-9.717-4.5-9.88-5.375-3.038-17 64.971-107.333 47.379-104.25-13.733 2.542-49.563 51.75-60.225 77.458-44.021 10.125 5.971 9.542 2.396 4-3.8-38.125-42.546-15.041-97.338 36.542-98.342 55.75 3.304 70.208 61.959 36 96.45-4.25 4.146-13.667 17.467.5 8.154 34.542-24.533 82.458 1.842 81.5 39.667-1.833 69.746-86.833 74.95-105.042 16.692-1.75-6.459-6.791-9.704-5.375 1.266 2.5 19.863 7.709 49.809 22.625 75.859z"/><path d="m641.615 359.354c12-24.067 20.75-48.754 22.291-75.154 1.417-9.717-4.458-9.879-5.375-3.038-16.958 64.971-107.333 47.375-104.208-13.737 2.5-49.558 51.75-60.221 77.417-44.017 10.125 5.971 9.583 2.392 4.041-3.8-38.166-42.545-15.041-97.341 36.5-98.341 55.75 3.304 70.209 61.958 36 96.45-4.25 4.145-13.666 17.462.542 8.15 34.5-24.534 82.417 1.846 81.458 39.67-1.791 69.746-86.833 74.946-105 16.692-1.791-6.458-6.833-9.704-5.416 1.267 2.5 19.862 7.75 49.808 22.666 75.858z"/><path d="m230.448 359.354c12-24.067 20.75-48.754 22.292-75.154 1.416-9.717-4.459-9.879-5.375-3.038-16.959 64.971-107.334 47.375-104.25-13.737 2.541-49.558 51.791-60.221 77.458-44.017 10.125 5.971 9.542 2.392 4.042-3.8-38.167-42.545-15.084-97.341 36.5-98.341 55.75 3.304 70.208 61.958 36 96.45-4.25 4.145-13.667 17.462.5 8.15 34.541-24.534 82.458 1.846 81.5 39.67-1.834 69.746-86.834 74.946-105.042 16.692-1.75-6.458-6.792-9.704-5.375 1.267 2.5 19.862 7.708 49.808 22.667 75.858z"/><path d="m702.906 940.646c-12 24.066-20.75 48.754-22.291 75.154-1.417 9.72 4.458 9.88 5.375 3.04 16.958-64.973 107.333-47.378 104.208 13.73-2.5 49.56-51.75 60.23-77.417 44.02-10.125-5.97-9.583-2.39-4.041 3.8 38.166 42.55 15.041 97.34-36.5 98.34-55.75-3.3-70.209-61.95-36-96.45 4.25-4.14 13.666-17.46-.542-8.15-34.5 24.54-82.417-1.84-81.458-39.67 1.791-69.743 86.833-74.943 105-16.69 1.75 6.46 6.791 9.7 5.416-1.27-2.5-19.858-7.75-49.804-22.666-75.854z"/><path d="m291.698 940.646c-11.958 24.066-20.708 48.754-22.25 75.154-1.458 9.72 4.458 9.88 5.333 3.04 17-64.973 107.375-47.378 104.25 13.73-2.5 49.56-51.75 60.23-77.416 44.02-10.125-5.97-9.584-2.39-4.042 3.8 38.167 42.55 15.042 97.34-36.5 98.34-55.75-3.3-70.208-61.95-36-96.45 4.25-4.14 13.667-17.46-.542-8.15-34.5 24.54-82.458-1.84-81.458-39.67 1.792-69.743 86.833-74.943 105-16.69 1.75 6.46 6.792 9.7 5.417-1.27-2.542-19.858-7.75-49.804-22.667-75.854z"/><path d="m60.854 313.017c4.958-10.187 9.792-19.671 12.417-30.837 1.75-10.534-1.834-6.621-3.834.283-2.999 9.575-11.374 13.933-19.083 14.038-14.041.191-21.083-10.85-20.625-22.725-1.542-12.492 11.125-21.334 20.667-20.655 7.166.513 13.458 4.384 17.208 7.396 2.5 1.317 5.167 1.896 1.458-1.491-7-7.638-12.833-12.35-12.708-23.796.125-10.746 9.333-21.95 21.5-21.6 15.208.441 22.125 12.046 22.084 22.837-.042 7.867-3.959 15.109-10.042 19.596-3.917 3.192-2.834 5.579 1.667 2.558 4.291-3.716 9.416-5.341 14.749-5.454 14.542-.229 20.25 12.338 19.417 24.017-.791 10.937-10.125 22.2-22.375 20.925-10.958-1.258-16.708-10.458-20.041-19.904-1.084-2.896-2.792-3.679-2.751.637 2.542 21.075 10.375 34.188 10.417 34.175z"/><path d="m872.521 988.03c-5 10.187-9.834 19.67-12.458 30.84-1.75 10.53 1.833 6.62 3.875-.29 3-9.57 11.333-13.93 19.083-14.03 14.041-.19 21.042 10.85 20.583 22.72 1.542 12.49-11.125 21.34-20.667 20.66-7.166-.52-13.416-4.39-17.208-7.4-2.5-1.32-5.125-1.9-1.458 1.49 7 7.64 12.833 12.35 12.708 23.8-.125 10.74-9.291 21.95-21.5 21.6-15.208-.44-22.125-12.05-22.083-22.84.041-7.87 3.958-15.11 10.041-19.6 3.959-3.19 2.834-5.58-1.666-2.56-4.292 3.72-9.417 5.35-14.75 5.46-14.542.23-20.25-12.34-19.375-24.02.75-10.93 10.083-22.2 22.333-20.92 11 1.25 16.75 10.46 20.042 19.9 1.083 2.9 2.833 3.68 2.75-.63-2.5-21.08-10.375-34.193-10.417-34.18z"/></g></svg>

<?xml version="1.0" encoding="UTF-8" standalone="no"?>
<!DOCTYPE svg PUBLIC "-//W3C//DTD SVG 1.1//EN" "http://www.w3.org/Graphics/SVG/1.1/DTD/svg11.dtd">
<svg width="100%" height="100%" viewBox="0 0 934 1300" version="1.1" xmlns="http://www.w3.org/2000/svg" xmlns:xlink="http://www.w3.org/1999/xlink" xml:space="preserve" xmlns:serif="http://www.serif.com/" style="fill-rule:evenodd;clip-rule:evenodd;stroke-linejoin:round;stroke-miterlimit:2;">
    <g id="_5C" serif:id="5C">
        <g id="path7106-7">
            <path d="M36.033,156.804L49.443,156.691C52.002,164.782 57.66,173.049 65.349,175.319C87.063,180.425 101.05,168.295 105.654,154.295C111.236,137.323 105.529,113.489 90.576,105.021C78.182,97.997 59.767,103.917 51.325,118.92L41.917,113.175L46.959,57.253L108.338,57.253L108.338,70.474L58.601,70.474L57.823,93.769C68.511,86.255 84.981,86.33 95.681,91.599C115.94,101.258 125.361,123.236 121.41,149.139C115.953,174.905 103.923,189.507 76.752,191.602C46.571,191.865 35.908,171.104 36.033,156.804Z" style="fill-rule:nonzero;"/>
        </g>
        <g id="path7122-6">
            <path d="M897.986,1143.21L884.564,1143.32C882.018,1135.22 876.348,1126.96 868.671,1124.68C846.956,1119.58 832.97,1131.7 828.366,1145.7C822.784,1162.68 828.491,1186.52 843.432,1194.99C855.838,1202.02 874.253,1196.1 882.695,1181.08L892.103,1186.83L887.048,1242.75L825.681,1242.75L825.681,1229.54L875.419,1229.54L876.197,1206.24C865.509,1213.75 849.039,1213.67 838.339,1208.4C818.067,1198.74 808.659,1176.78 812.598,1150.86C818.067,1125.1 830.084,1110.51 857.255,1108.41C887.449,1108.15 898.112,1128.9 897.986,1143.2L897.986,1143.21Z" style="fill-rule:nonzero;"/>
        </g>
        <g id="path3245">
            <path d="M436.031,769.044C448.031,744.981 456.781,720.29 458.323,693.89C459.74,684.173 453.823,684.01 452.948,690.852C435.948,755.823 345.615,738.231 348.698,677.119C351.24,627.556 400.448,616.894 426.156,633.098C436.281,639.069 435.698,635.494 430.156,629.298C392.031,586.752 415.115,531.96 466.698,530.956C522.448,534.26 536.906,592.915 502.698,627.406C498.448,631.552 489.031,644.873 503.198,635.56C537.74,611.027 585.656,637.402 584.698,675.227C582.865,744.973 497.865,750.177 479.656,691.919C477.906,685.46 472.865,682.215 474.281,693.185C476.781,713.048 481.99,742.994 496.906,769.044L436.031,769.044Z" style="fill-rule:nonzero;"/>
        </g>
        <g id="path3247">
            <path d="M641.615,359.354C653.615,335.287 662.365,310.6 663.906,284.2C665.323,274.483 659.448,274.321 658.531,281.162C641.573,346.133 551.198,328.537 554.323,267.425C556.823,217.867 606.073,207.204 631.74,223.408C641.865,229.379 641.323,225.8 635.781,219.608C597.615,177.063 620.74,122.267 672.281,121.267C728.031,124.571 742.49,183.225 708.281,217.717C704.031,221.862 694.615,235.179 708.823,225.867C743.323,201.333 791.24,227.713 790.281,265.537C788.49,335.283 703.448,340.483 685.281,282.229C683.49,275.771 678.448,272.525 679.865,283.496C682.365,303.358 687.615,333.304 702.531,359.354L641.615,359.354Z" style="fill-rule:nonzero;"/>
        </g>
        <g id="path3249">
            <path d="M230.448,359.354C242.448,335.287 251.198,310.6 252.74,284.2C254.156,274.483 248.281,274.321 247.365,281.162C230.406,346.133 140.031,328.537 143.115,267.425C145.656,217.867 194.906,207.204 220.573,223.408C230.698,229.379 230.115,225.8 224.615,219.608C186.448,177.063 209.531,122.267 261.115,121.267C316.865,124.571 331.323,183.225 297.115,217.717C292.865,221.862 283.448,235.179 297.615,225.867C332.156,201.333 380.073,227.713 379.115,265.537C377.281,335.283 292.281,340.483 274.073,282.229C272.323,275.771 267.281,272.525 268.698,283.496C271.198,303.358 276.406,333.304 291.365,359.354L230.448,359.354Z" style="fill-rule:nonzero;"/>
        </g>
        <g id="path3397">
            <path d="M702.906,940.646C690.906,964.712 682.156,989.4 680.615,1015.8C679.198,1025.52 685.073,1025.68 685.99,1018.84C702.948,953.867 793.323,971.462 790.198,1032.57C787.698,1082.13 738.448,1092.8 712.781,1076.59C702.656,1070.62 703.198,1074.2 708.74,1080.39C746.906,1122.94 723.781,1177.73 672.24,1178.73C616.49,1175.43 602.031,1116.78 636.24,1082.28C640.49,1078.14 649.906,1064.82 635.698,1074.13C601.198,1098.67 553.281,1072.29 554.24,1034.46C556.031,964.717 641.073,959.517 659.24,1017.77C660.99,1024.23 666.031,1027.47 664.656,1016.5C662.156,996.642 656.906,966.696 641.99,940.646L702.906,940.646Z" style="fill-rule:nonzero;"/>
        </g>
        <g id="path3399">
            <path d="M291.698,940.646C279.74,964.712 270.99,989.4 269.448,1015.8C267.99,1025.52 273.906,1025.68 274.781,1018.84C291.781,953.867 382.156,971.462 379.031,1032.57C376.531,1082.13 327.281,1092.8 301.615,1076.59C291.49,1070.62 292.031,1074.2 297.573,1080.39C335.74,1122.94 312.615,1177.73 261.073,1178.73C205.323,1175.43 190.865,1116.78 225.073,1082.28C229.323,1078.14 238.74,1064.82 224.531,1074.13C190.031,1098.67 142.073,1072.29 143.073,1034.46C144.865,964.717 229.906,959.517 248.073,1017.77C249.823,1024.23 254.865,1027.47 253.49,1016.5C250.948,996.642 245.74,966.696 230.823,940.646L291.698,940.646Z" style="fill-rule:nonzero;"/>
        </g>
        <g id="path3460">
            <path d="M60.854,313.017C65.812,302.83 70.646,293.346 73.271,282.18C75.021,271.646 71.437,275.559 69.437,282.463C66.438,292.038 58.063,296.396 50.354,296.501C36.313,296.692 29.271,285.651 29.729,273.776C28.187,261.284 40.854,252.442 50.396,253.121C57.562,253.634 63.854,257.505 67.604,260.517C70.104,261.834 72.771,262.413 69.062,259.026C62.062,251.388 56.229,246.676 56.354,235.23C56.479,224.484 65.687,213.28 77.854,213.63C93.062,214.071 99.979,225.676 99.938,236.467C99.896,244.334 95.979,251.576 89.896,256.063C85.979,259.255 87.062,261.642 91.563,258.621C95.854,254.905 100.979,253.28 106.312,253.167C120.854,252.938 126.562,265.505 125.729,277.184C124.938,288.121 115.604,299.384 103.354,298.109C92.396,296.851 86.646,287.651 83.313,278.205C82.229,275.309 80.521,274.526 80.562,278.842C83.104,299.917 90.937,313.03 90.979,313.017L60.854,313.017Z" style="fill-rule:nonzero;"/>
        </g>
        <g id="path3480">
            <path d="M872.521,988.03C867.521,998.217 862.687,1007.7 860.063,1018.87C858.313,1029.4 861.896,1025.49 863.938,1018.58C866.938,1009.01 875.271,1004.65 883.021,1004.55C897.062,1004.36 904.063,1015.4 903.604,1027.27C905.146,1039.76 892.479,1048.61 882.937,1047.93C875.771,1047.41 869.521,1043.54 865.729,1040.53C863.229,1039.21 860.604,1038.63 864.271,1042.02C871.271,1049.66 877.104,1054.37 876.979,1065.82C876.854,1076.56 867.688,1087.77 855.479,1087.42C840.271,1086.98 833.354,1075.37 833.396,1064.58C833.437,1056.71 837.354,1049.47 843.437,1044.98C847.396,1041.79 846.271,1039.4 841.771,1042.42C837.479,1046.14 832.354,1047.77 827.021,1047.88C812.479,1048.11 806.771,1035.54 807.646,1023.86C808.396,1012.93 817.729,1001.66 829.979,1002.94C840.979,1004.19 846.729,1013.4 850.021,1022.84C851.104,1025.74 852.854,1026.52 852.771,1022.21C850.271,1001.13 842.396,988.017 842.354,988.03L872.521,988.03Z" style="fill-rule:nonzero;"/>
        </g>
    </g>
</svg>
